X: 19127
T: Irish Washerwoman, The
R: jig
M: 6/8
K: Gmajor
|:BGG DGG|BGB dcB|cAA EAA|cA/B/c edc|
BG/G/G DG/G/G|BG/A/B dcB|c>Bc Adc|BGG G3:|
BGG DGG|BGB BAG|AFF DFF|AF/G/A AGF|
EGG DGG|CGG B,GG|c>Bc Adc|BGG G3|
gdd Bdd|gdg bag|fdd Add|fd/e/f agf|
egg dgg|cgg BgB|c>Bc Adc|BGG G3||

